X:72
T: Graf und Nonne (Die Nonne)
N: Q0155I
O: Mitteleuropa, Deutschland (BRD) , Franken
N: Letzten Takt der dritten Zeile rhythmisch korrigiert. Schlusspause
N: ergaenzt.
R: Ballade, Standesunterschied, vergebliche Werbung, Liebe, Klage
M: 4/4
L: 1/8
K: G
D2 | G2D2B,2D2 | G2B2B2
d2 | c3BA2Ac | B4z2
dc | B2B2B2dB | c2d2c2
cB | A2A2A2cA | B2c2B2
dc | B2B2A2Ac | B4z2

